Numix/24/actions/view-right-close.svg

<?xml version="1.0" encoding="UTF-8" standalone="no"?>
<svg
   xmlns:dc="http://purl.org/dc/elements/1.1/"
   xmlns:cc="http://creativecommons.org/ns#"
   xmlns:rdf="http://www.w3.org/1999/02/22-rdf-syntax-ns#"
   xmlns:svg="http://www.w3.org/2000/svg"
   xmlns="http://www.w3.org/2000/svg"
   xmlns:sodipodi="http://sodipodi.sourceforge.net/DTD/sodipodi-0.dtd"
   xmlns:inkscape="http://www.inkscape.org/namespaces/inkscape"
   width="24"
   height="24"
   viewBox="0 0 24 24"
   id="svg2"
   version="1.1"
   inkscape:version="0.91 r13725"
   sodipodi:docname="view-right-close.svg">
  <metadata
     id="metadata16">
    <rdf:RDF>
      <cc:Work
         rdf:about="">
        <dc:format>image/svg+xml</dc:format>
        <dc:type
           rdf:resource="http://purl.org/dc/dcmitype/StillImage" />
        <dc:title />
      </cc:Work>
    </rdf:RDF>
  </metadata>
  <defs
     id="defs14" />
  <sodipodi:namedview
     pagecolor="#ffffff"
     bordercolor="#666666"
     borderopacity="1"
     objecttolerance="10"
     gridtolerance="10"
     guidetolerance="10"
     inkscape:pageopacity="0"
     inkscape:pageshadow="2"
     inkscape:window-width="1366"
     inkscape:window-height="704"
     id="namedview12"
     showgrid="true"
     inkscape:zoom="16.84375"
     inkscape:cx="8.0625581"
     inkscape:cy="12"
     inkscape:window-x="0"
     inkscape:window-y="27"
     inkscape:window-maximized="1"
     inkscape:current-layer="svg2">
    <inkscape:grid
       type="xygrid"
       id="grid4144" />
  </sodipodi:namedview>
  <path
     inkscape:connector-curvature="0"
     style="fill:#ffffff"
     d="m 5,1.9999996 c -3,0 -3,2 -3,2.964844 L 2,22 22,22 22,4.9999996 c 0,-1.0001129 0,-3 -3,-3 z"
     id="path4" />
  <path
     style="fill:#888888"
     d="M 5,2 C 2,2 2,3.9999997 2,4.9648438 L 2,22 22,22 22,5 C 22,3.9998871 22,2 19,2 L 5,2 Z m 0,1 14,0 c 2,0 2.06238,1.0019139 2,2 L 21,8 3,8 3,5 C 3,3.9996982 3,3 5,3 Z M 3,9 9,9 9,21 3,21 3,9 Z m 7,0 11,0 0,12 -11,0 0,-12 z"
     id="path6"
     inkscape:connector-curvature="0" />
  <path
     inkscape:connector-curvature="0"
     style="fill-opacity:0.10199998"
     d="m 3,8.9999996 6,0 L 9,21 3,21 Z"
     id="path8" />
  <g
     transform="translate(1,0.9999996)"
     style="fill:#888888;fill-opacity:0.9020004"
     id="g10" />
  <path
     style="fill:#dc322f;fill-opacity:1"
     d="M 22.999708,20.171573 20.171281,17.343146 22.999708,14.514719 20.171281,11.686292 17.342854,14.514719 14.514427,11.686292 11.686,14.514719 14.514427,17.343146 11.686,20.171573 14.514427,23 17.342854,20.171573 20.171281,23 Z"
     id="path6-7"
     inkscape:connector-curvature="0" />
</svg>

<svg xmlns="http://www.w3.org/2000/svg" viewBox="0 0 24 24">
 <path d="m 5 2 c -3 0 -3 2 -3 2.965 l 0 17.04 20 0 0 -17 c 0 -1 0 -3 -3 -3 z" style="fill:#fff"/>
 <path d="m 5 2 c -3 0 -3 2 -3 2.965 l 0 17.04 20 0 0 -17 c 0 -1 0 -3 -3 -3 l -14 0 m 0 1 14 0 c 2 0 2.062 1 2 2 l 0 3 -18 0 0 -3 c 0 -1 0 -2 2 -2 m -2 6 6 0 0 12 -6 0 0 -12 m 7 0 11 0 0 12 -11 0 0 -12 z" style="fill:#888"/>
 <path d="m 3 9 6 0 l 0 12 -6 0" style="fill-opacity:0.102"/>
 <path d="m 23 20.17 -2.828 -2.828 2.828 -2.828 -2.828 -2.828 -2.828 2.828 -2.828 -2.828 -2.828 2.828 2.828 2.828 -2.828 2.828 2.828 2.828 2.828 -2.828 2.828 2.828" style="fill:#dc322f;fill-opacity:1"/>
</svg>
